X:1
T:Title
%%score { 1 | 2 }
L:1/8
M:4/4
K:Ab
V:1 treble nm="Grand Piano"
V:2 bass 
V:1
 z4 z2[Q:1/4=108] [CE]2 | [CA]2 [CA]2 [EA]2 B2 | c3 B A2 A2 | [Fd]2 [Fd]2 [FA]2 [=EB]2 | %4
[M:3/4] [Ec]6 |[M:1/4] [Ec]2 |[M:4/4] c2 B2 F2 G2 | [CB]3 [CA] [CA]2 [Ec]2 | %8
 [EB]2 [EB]2 [F=d]2 [AB]2 |[M:3/4] [Ge]6 |[M:1/4] [Ed]2 |[M:4/4] [Ec]2 [CE]2 [DF]2 [Fd]2 | %12
 [Ec]3 [DB] [CA]2 [EG]2 | [DF]2 [EG]2 [FA]2 [FB]2 |[M:3/4] [=Ec]6 |[M:1/4] [=Ec]2 | %16
[M:4/4] [Ed]2 [EG]2 [EA]2 B2 |[M:9/8] c2 d- d e2- e [Fd]2 |[M:4/4] c3 d c2 B2 |[M:3/4] [CA]6 |] %20
V:2
 z4 z2 [A,,A,]2 | [A,,E,]2 [A,,E,]2 [C,A,]2 [E,G,E]2 | [A,E]3 [A,D] [A,C]2 [A,C_G]2 | %3
 [D,A,]2 [D,A,]2 [D,D]2 [D,A,]2 |[M:3/4] [A,,A,]6 |[M:1/4] [A,,A,]2 | %6
[M:4/4] [E,G,D]2 [E,G,D]2 [E,A,D]2 [E,B,D]2 | [A,,A,]3 [A,,A,] [A,,A,]2 [=A,,_G,]2 | %8
 [B,,G,]2 [B,,G,]2 [B,,B,]2 [F,B,]2 |[M:3/4] [E,B,]6 |[M:1/4] [E,G,]2 | %11
[M:4/4] [A,,A,]2 [A,,A,]2 [D,A,]2 [D,A,]2 | [A,,A,]3 [A,,E,] [A,,E,]2 [C,A,]2 | %13
 [D,A,]2 [D,B,]2 [D,A,]2 [D,F,]2 |[M:3/4] [C,G,]6 |[M:1/4] [C,G,]2 | %16
[M:4/4] [B,,G,]2 [D,B,]2 [C,A,]2 [E,G,E]2 | %17
[M:9/8][K:treble] [A,E]2 [A,B,E]- [A,B,E] [A,CA]2- [A,CA][K:bass] [D,A,]2 | %18
[M:4/4] [E,A,E]3 [E,B,E] [E,A,E]2 [E,G,D]2 |[M:3/4] [A,,A,]6 |] %20

